X: 322
T: The full moon
C: anon.
O: Ireland
B: Francis O'Neill: "The Dance Music of Ireland" (1907) no. 322
R: Double jig
Z: Transcribed by Frank Nordberg - http://www.musicaviva.com
F: http://www.musicaviva.com/abc/tunes/ireland/oneill-1001/oneill-1001-032
2.abc
M: 6/8
L: 1/8
K: D
g|f>ed cAA|f>ed cBA|FGA ABG|FGA A2g|f>ed cAA|f>ed cAG|FDF G2A/G/|F>DD D2:
|
|:(A/G/)|F>GA ABc|(d/e/f)d cAG|cAA A2G|cAA A2g|f>ed cAA|f>ed cAG|FDF G2A/
G/|F>DD D2:|
W:
W:
W: From Musica Viva - http://www.musicaviva.com
W: the Internet center for free sheet music downloads.


